src/img/hero-bg.svg

<svg fill="none" height="481" viewBox="0 0 688 481" width="688" xmlns="http://www.w3.org/2000/svg" xmlns:xlink="http://www.w3.org/1999/xlink"><filter id="a" color-interpolation-filters="sRGB" filterUnits="userSpaceOnUse" height="678" width="734" x="-293" y="-197"><feFlood flood-opacity="0" result="BackgroundImageFix"/><feBlend in="SourceGraphic" in2="BackgroundImageFix" mode="normal" result="shape"/><feGaussianBlur result="effect1_foregroundBlur_2_405" stdDeviation="60"/></filter><filter id="b" color-interpolation-filters="sRGB" filterUnits="userSpaceOnUse" height="678" width="734" x="-46" y="-282"><feFlood flood-opacity="0" result="BackgroundImageFix"/><feBlend in="SourceGraphic" in2="BackgroundImageFix" mode="normal" result="shape"/><feGaussianBlur result="effect1_foregroundBlur_2_405" stdDeviation="60"/></filter><g filter="url(#a)" opacity=".3"><path clip-rule="evenodd" d="m298.209 155.001c-11.036 34.668-36.295 61.189-59.172 89.461-19.711 24.359-40.717 46.073-65.745 64.911-27.878 20.983-54.17 50.185-89.0188 51.573-34.9617 1.393-64.3225-24.539-93.20574-44.312-27.15636-18.59-46.49256-44.207-69.90186-67.348-32.0396-31.674-87.3326-49.644-93.5996-94.285-6.059-43.156 37.923-76.6513 64.787-110.9403 23.8094-30.3895 50.3854-57.306 83.0845-77.7985 33.57712-21.0427 69.6441-48.2428 108.8357-42.4776 39.1278 5.7558 55.7648 55.7146 91.8148 71.9941 42.028 18.9789 104.667-7.1989 132.748 29.413 26.867 35.0303 2.768 87.7273-10.627 129.8093z" fill="#82f7ff" fill-rule="evenodd"/></g><g filter="url(#b)" opacity=".3"><path clip-rule="evenodd" d="m545.209 70.0007c-11.036 34.6683-36.295 61.1893-59.172 89.4613-19.711 24.359-40.717 46.073-65.745 64.911-27.878 20.983-54.17 50.185-89.019 51.573-34.962 1.393-64.322-24.539-93.206-44.312-27.156-18.59-46.492-44.207-69.901-67.348-32.04-31.674-87.3326-49.644-93.5999-94.2853-6.0588-43.1555 37.9229-76.65105 64.7869-110.94 23.809-30.3895 50.385-57.306 83.085-77.7987 33.577-21.043 69.644-48.243 108.835-42.477 39.128 5.755 55.765 55.714 91.815 71.9937 42.028 18.9789 104.667-7.1989 132.748 29.413 26.867 35.0303 2.768 87.7273-10.627 129.809z" fill="#82ffd2" fill-rule="evenodd"/></g></svg>

<svg width="688" height="481" viewBox="0 0 688 481" fill="none" xmlns="http://www.w3.org/2000/svg">
<g opacity="0.3" filter="url(#filter0_f_2_405)">
<path fill-rule="evenodd" clip-rule="evenodd" d="M298.209 155.001C287.173 189.669 261.914 216.19 239.037 244.462C219.326 268.821 198.32 290.535 173.292 309.373C145.414 330.356 119.122 359.558 84.2732 360.946C49.3115 362.339 19.9507 336.407 -8.93254 316.634C-36.0889 298.044 -55.4251 272.427 -78.8344 249.286C-110.874 217.612 -166.167 199.642 -172.434 155.001C-178.493 111.845 -134.511 78.3497 -107.647 44.0607C-83.8376 13.6712 -57.2616 -13.2453 -24.5625 -33.7378C9.01462 -54.7805 45.0816 -81.9806 84.2732 -76.2154C123.401 -70.4596 140.038 -20.5008 176.088 -4.2213C218.116 14.7576 280.755 -11.4202 308.836 25.1917C335.703 60.222 311.604 112.919 298.209 155.001Z" fill="#82F7FF"/>
</g>
<g opacity="0.3" filter="url(#filter1_f_2_405)">
<path fill-rule="evenodd" clip-rule="evenodd" d="M545.209 70.0007C534.173 104.669 508.914 131.19 486.037 159.462C466.326 183.821 445.32 205.535 420.292 224.373C392.414 245.356 366.122 274.558 331.273 275.946C296.311 277.339 266.951 251.407 238.067 231.634C210.911 213.044 191.575 187.427 168.166 164.286C136.126 132.612 80.8334 114.642 74.5661 70.0007C68.5073 26.8452 112.489 -6.65035 139.353 -40.9393C163.162 -71.3288 189.738 -98.2453 222.438 -118.738C256.015 -139.781 292.082 -166.981 331.273 -161.215C370.401 -155.46 387.038 -105.501 423.088 -89.2213C465.116 -70.2424 527.755 -96.4202 555.836 -59.8083C582.703 -24.778 558.604 27.919 545.209 70.0007Z" fill="#82FFD2"/>
</g>
<defs>
<filter id="filter0_f_2_405" x="-293" y="-197" width="734" height="678" filterUnits="userSpaceOnUse" color-interpolation-filters="sRGB">
<feFlood flood-opacity="0" result="BackgroundImageFix"/>
<feBlend mode="normal" in="SourceGraphic" in2="BackgroundImageFix" result="shape"/>
<feGaussianBlur stdDeviation="60" result="effect1_foregroundBlur_2_405"/>
</filter>
<filter id="filter1_f_2_405" x="-46" y="-282" width="734" height="678" filterUnits="userSpaceOnUse" color-interpolation-filters="sRGB">
<feFlood flood-opacity="0" result="BackgroundImageFix"/>
<feBlend mode="normal" in="SourceGraphic" in2="BackgroundImageFix" result="shape"/>
<feGaussianBlur stdDeviation="60" result="effect1_foregroundBlur_2_405"/>
</filter>
</defs>
</svg>
